modules/themify-icons/icons/underline.svg

<?xml version="1.0" encoding="utf-8"?>
<!-- Generated by IcoMoon.io -->
<!DOCTYPE svg PUBLIC "-//W3C//DTD SVG 1.1//EN" "http://www.w3.org/Graphics/SVG/1.1/DTD/svg11.dtd">
<svg version="1.1" xmlns="http://www.w3.org/2000/svg" xmlns:xlink="http://www.w3.org/1999/xlink" width="17" height="17" viewBox="0 0 17 17">
<g>
</g>
	<path d="M15 1v1h-1v6.459c0 3.032-2.467 5.5-5.5 5.5s-5.5-2.468-5.5-5.5v-6.459h-1v-1h3v1h-1v6.459c0 2.481 2.019 4.5 4.5 4.5s4.5-2.019 4.5-4.5v-6.459h-1v-1h3zM2 16h13v-1h-13v1z" fill="#000000" />
</svg>

<svg xmlns="http://www.w3.org/2000/svg" width="17" height="17"><path d="M15 1v1h-1v6.459c0 3.032-2.467 5.5-5.5 5.5S3 11.491 3 8.459V2H2V1h3v1H4v6.459c0 2.481 2.019 4.5 4.5 4.5s4.5-2.019 4.5-4.5V2h-1V1h3zM2 16h13v-1H2v1z"/></svg>
